build/images/fb-icons/thumbnail.svg

<svg xmlns="http://www.w3.org/2000/svg" preserveAspectRatio="xMidYMid" width="19" height="15" viewBox="0 0 19 15"><defs><style>.cls-1{fill:#777;fill-rule:evenodd}</style></defs><path d="M17.793 0H1.206C.54 0 0 .548 0 1.224v12.551C0 14.452.54 15 1.206 15h16.587C18.46 15 19 14.452 19 13.775V1.224C19 .548 18.46 0 17.793 0zm0 1.224v8.906l-2.377-2.194a.894.894 0 0 0-1.248.03l-2.406 2.442-4.745-5.752a.895.895 0 0 0-1.379-.009L1.206 9.874v-8.65h16.587zm-5.126 3.215c0-.93.742-1.684 1.658-1.684.917 0 1.659.754 1.659 1.684a1.67 1.67 0 0 1-1.659 1.683 1.67 1.67 0 0 1-1.658-1.683z" class="cls-1"/></svg>

<svg xmlns="http://www.w3.org/2000/svg" xmlns:xlink="http://www.w3.org/1999/xlink" preserveAspectRatio="xMidYMid" width="19" height="15" viewBox="0 0 19 15">
  <defs>
    <style>
      .cls-1 {
        fill: #777;
        fill-rule: evenodd;
      }
    </style>
  </defs>
  <path d="M17.793,-0.000 L1.206,-0.000 C0.540,-0.000 -0.000,0.548 -0.000,1.224 L-0.000,13.775 C-0.000,14.452 0.540,15.000 1.206,15.000 L17.793,15.000 C18.460,15.000 19.000,14.452 19.000,13.775 L19.000,1.224 C19.000,0.548 18.460,-0.000 17.793,-0.000 ZM17.793,1.224 L17.793,10.130 L15.416,7.936 C15.059,7.606 14.509,7.619 14.168,7.966 L11.762,10.408 L7.017,4.656 C6.659,4.221 6.002,4.217 5.638,4.647 L1.206,9.874 L1.206,1.224 L17.793,1.224 ZM12.667,4.439 C12.667,3.509 13.409,2.755 14.325,2.755 C15.242,2.755 15.984,3.509 15.984,4.439 C15.984,5.369 15.242,6.122 14.325,6.122 C13.409,6.122 12.667,5.369 12.667,4.439 Z" class="cls-1"/>
</svg>
